icons/play-list-fill.svg

<svg xmlns="http://www.w3.org/2000/svg" width="24" height="24" fill="none"><g clip-path="url(#a)"><g><path fill="#121212" d="M2 18H12V20H2V18ZM2 11H16V13H2V11ZM2 4H22V6H2V4ZM19 15.17V9H24V11H21V18C20.9997 18.6368 20.7967 19.2569 20.4206 19.7707C20.0444 20.2844 19.5145 20.6652 18.9076 20.8578C18.3007 21.0505 17.6482 21.045 17.0446 20.8422C16.441 20.6394 15.9176 20.2498 15.5501 19.7298C15.1826 19.2098 14.9901 18.5864 15.0004 17.9497C15.0107 17.313 15.2234 16.6961 15.6076 16.1883C15.9918 15.6805 16.5276 15.3082 17.1375 15.1251C17.7473 14.942 18.3997 14.9577 19 15.17Z"/></g></g><defs><clipPath id="a"><rect width="24" height="24" fill="white"/></clipPath></defs></svg>

<svg width="24" height="24" fill="none" xmlns="http://www.w3.org/2000/svg"><g clip-path="url(#a)"><path d="M2 18h10v2H2v-2Zm0-7h14v2H2v-2Zm0-7h20v2H2V4Zm17 11.17V9h5v2h-3v7a3 3 0 1 1-2-2.83Z" /></g><defs><clipPath id="a"><path fill="#fff" d="M0 0h24v24H0z"/></clipPath></defs></svg>
